X:19017
T:Silver Spear
R:Reel
C:Trad.
O:Ireland
M:4/4
L:1/8
Q:1/8=240
K:D
AG|:"D"FAA2 BAFA|"Bm"dfed BcdA|"D"FAA2 BAFA|"Bm"dfed B3 A|
"D"FAA2 BAFA|"Bm"dfed Bdef|"Em"g2g e"Bm"f2f e|1"Bm"dfed B2 A2:|2"Bm"dfed Bcde|:
"D"f2af "Bm"bfaf|"Em"gfed "Bm"Bcde|"D"f2af "Bm"bfaf|"Em"gfed "Bm"B2 A2|
"D"f2af "Bm"bfaf|"Em"gfed "Bm"Bcde|"Em"g2g e"Bm"f2f e|"Bm"dfed B2 A2:|

